X: 4385
T: GARB OF OLD GAUL
%R: air, march
B: James Kerr "Merry Melodies" v.4 p.41 #385
Z: 2016 John Chambers <jc:trillian.mit.edu>
M: C
L: 1/8
K: C
G2 |\
c2c>c c2e>d | cGEG c2c>d |\
e2e>e e2g>f | edcd e2e>f |\
g2g>g g_bag | f2f>f fagf |\
e>dc>d egfe | d2d>d d2 :|
(B>A) |\
(G>A)(G>A) (B>c)(B>c) | (d>e)(d>e) f2e>d |\
c>dc>d e>fe>f | g>ag>a _b2(ag) |\
af de/f/ ge cd/e/ | fedc cBAG |\
A>Bc>d e>fd>e | c2c>c c2 |]

%%sep 1 1 500
%%sep 1 1 500
%%center WALTZES, POLKAS &c.

%%sep 1 1 500
%%sep 1 1 500

